img/icons/general/star.svg

<svg xmlns="http://www.w3.org/2000/svg" viewBox="0 0 48 46"><path d="M48 18H29.72L24 0l-5.72 18H0l14.75 10.19L9 46l15-11 15 11-5.75-17.81zM35 40.49l-11-8-11 8 4.09-13.12L6.41 20h13.32L24 6.28 28.27 20h13.32l-10.67 7.37z" fill="#231f20" data-name="Layer 2"/></svg>

<svg xmlns="http://www.w3.org/2000/svg" viewBox="0 0 48 46"><defs><style>.cls-1{fill:#231f20;}</style></defs><title>Star</title><g id="Layer_2" data-name="Layer 2"><g id="Icons"><g id="General"><path id="Star" class="cls-1" d="M48,18H29.72L24,0,18.28,18H0L14.75,28.19,9,46,24,35,39,46,33.25,28.19ZM35,40.49l-11-8-11,8,4.09-13.12L6.41,20H19.73L24,6.28,28.27,20H41.59L30.92,27.37Z"/></g></g></g></svg>
